X:632
T:Reel 632
M:4/4
K:Gmaj
L:1/8
gf|d>G (3GGG dcBc|d>G (3GGG G2ge|d>G (3GGG dcBc| (3ABA =fd c2:|cA|Ggge =fedB|Ggge d2dc'|bggf gfdB|cedc BGGA| (3gfg dB cBAB|GBdf gfdB|GABc dec'a|bagf g2|ed|egc'a bgaf|gfab c'bge|dgeg a2d'c'| (3bc'd' af g2dg| (3efg c'b c'bc'a|gbac' bg (3def |gbac' bgc'a|bgaf g2|
